icons/circle/48/kshisen.svg

<svg viewBox="0 0 48 48" xmlns="http://www.w3.org/2000/svg">
 <defs>
  <linearGradient id="linearGradient3764" x1="1" x2="47" gradientTransform="matrix(0 -1 1 0 -1.5e-6 48)" gradientUnits="userSpaceOnUse">
   <stop style="stop-color:#9c7a40" offset="0"/>
   <stop style="stop-color:#ab8746" offset="1"/>
  </linearGradient>
 </defs>
 <path d="m36.31 5c5.859 4.062 9.688 10.831 9.688 18.5 0 12.426-10.07 22.5-22.5 22.5-7.669 0-14.438-3.828-18.5-9.688 1.037 1.822 2.306 3.499 3.781 4.969 4.085 3.712 9.514 5.969 15.469 5.969 12.703 0 23-10.298 23-23 0-5.954-2.256-11.384-5.969-15.469-1.469-1.475-3.147-2.744-4.969-3.781zm4.969 3.781c3.854 4.113 6.219 9.637 6.219 15.719 0 12.703-10.297 23-23 23-6.081 0-11.606-2.364-15.719-6.219 4.16 4.144 9.883 6.719 16.219 6.719 12.703 0 23-10.298 23-23 0-6.335-2.575-12.06-6.719-16.219z" style="opacity:.05"/>
 <path d="m41.28 8.781c3.712 4.085 5.969 9.514 5.969 15.469 0 12.703-10.297 23-23 23-5.954 0-11.384-2.256-15.469-5.969 4.113 3.854 9.637 6.219 15.719 6.219 12.703 0 23-10.298 23-23 0-6.081-2.364-11.606-6.219-15.719z" style="opacity:.1"/>
 <path d="m31.25 2.375c8.615 3.154 14.75 11.417 14.75 21.13 0 12.426-10.07 22.5-22.5 22.5-9.708 0-17.971-6.135-21.12-14.75a23 23 0 0 0 44.875-7 23 23 0 0 0-16-21.875z" style="opacity:.2"/>
 <path d="m24 1c12.703 0 23 10.297 23 23s-10.297 23-23 23-23-10.297-23-23 10.297-23 23-23z" style="fill:url(#linearGradient3764)"/>
 <path d="m40.03 7.531c3.712 4.084 5.969 9.514 5.969 15.469 0 12.703-10.297 23-23 23-5.954 0-11.384-2.256-15.469-5.969 4.178 4.291 10.01 6.969 16.469 6.969 12.703 0 23-10.298 23-23 0-6.462-2.677-12.291-6.969-16.469z" style="opacity:.1"/>
 <g style="fill-opacity:.102">
  <rect x="11" y="15" width="13" height="20" rx="2"/>
  <rect x="26" y="15" width="13" height="20" rx="2"/>
 </g>
 <rect x="10" y="14" width="13" height="20" rx="2" style="fill:#f4eee4"/>
 <rect x="25" y="14" width="13" height="20" rx="2" style="fill:#f4eee4"/>
 <path d="m28.5 16a2.5 2.5 0 0 0-2.5 2.5 2.5 2.5 0 0 0 2.5 2.5 2.5 2.5 0 0 0 2.5-2.5 2.5 2.5 0 0 0-2.5-2.5m0 1a1.5 1.5 0 0 1 1.5 1.5 1.5 1.5 0 0 1-1.5 1.5 1.5 1.5 0 0 1-1.5-1.5 1.5 1.5 0 0 1 1.5-1.5" style="fill:#3d8b58"/>
 <circle cx="28.5" cy="18.5" r=".5" style="fill:#3d8b58"/>
 <path d="m34.5 16a2.5 2.5 0 0 0-2.5 2.5 2.5 2.5 0 0 0 2.5 2.5 2.5 2.5 0 0 0 2.5-2.5 2.5 2.5 0 0 0-2.5-2.5m0 1a1.5 1.5 0 0 1 1.5 1.5 1.5 1.5 0 0 1-1.5 1.5 1.5 1.5 0 0 1-1.5-1.5 1.5 1.5 0 0 1 1.5-1.5" style="fill:#606060"/>
 <circle cx="34.5" cy="18.5" r=".5" style="fill:#606060"/>
 <path d="m28.5 27a2.5 2.5 0 0 0-2.5 2.5 2.5 2.5 0 0 0 2.5 2.5 2.5 2.5 0 0 0 2.5-2.5 2.5 2.5 0 0 0-2.5-2.5m0 1a1.5 1.5 0 0 1 1.5 1.5 1.5 1.5 0 0 1-1.5 1.5 1.5 1.5 0 0 1-1.5-1.5 1.5 1.5 0 0 1 1.5-1.5" style="fill:#606060"/>
 <circle cx="28.5" cy="29.5" r=".5" style="fill:#606060"/>
 <path d="m34.5 27a2.5 2.5 0 0 0-2.5 2.5 2.5 2.5 0 0 0 2.5 2.5 2.5 2.5 0 0 0 2.5-2.5 2.5 2.5 0 0 0-2.5-2.5m0 1a1.5 1.5 0 0 1 1.5 1.5 1.5 1.5 0 0 1-1.5 1.5 1.5 1.5 0 0 1-1.5-1.5 1.5 1.5 0 0 1 1.5-1.5" style="fill:#3d8b58"/>
 <circle cx="34.5" cy="29.5" r=".5" style="fill:#3d8b58"/>
 <path d="m16.5 16a3.5 3.5 0 0 0-3.5 3.5 3.5 3.5 0 0 0 3.5 3.5 3.5 3.5 0 0 0 3.5-3.5 3.5 3.5 0 0 0-3.5-3.5m0 1a2.5 2.5 0 0 1 2.5 2.5 2.5 2.5 0 0 1-2.5 2.5 2.5 2.5 0 0 1-2.5-2.5 2.5 2.5 0 0 1 2.5-2.5" style="fill:#606060"/>
 <path d="m16.5 18a1.5 1.5 0 0 0-1.5 1.5 1.5 1.5 0 0 0 1.5 1.5 1.5 1.5 0 0 0 1.5-1.5 1.5 1.5 0 0 0-1.5-1.5m0 1a0.5 0.5 0 0 1 0.5 0.5 0.5 0.5 0 0 1-0.5 0.5 0.5 0.5 0 0 1-0.5-0.5 0.5 0.5 0 0 1 0.5-0.5" style="fill:#606060"/>
 <g transform="translate(0,9)">
  <path d="m16.5 16a3.5 3.5 0 0 0-3.5 3.5 3.5 3.5 0 0 0 3.5 3.5 3.5 3.5 0 0 0 3.5-3.5 3.5 3.5 0 0 0-3.5-3.5m0 1a2.5 2.5 0 0 1 2.5 2.5 2.5 2.5 0 0 1-2.5 2.5 2.5 2.5 0 0 1-2.5-2.5 2.5 2.5 0 0 1 2.5-2.5" style="fill:#3d8b58"/>
  <path d="m16.5 18a1.5 1.5 0 0 0-1.5 1.5 1.5 1.5 0 0 0 1.5 1.5 1.5 1.5 0 0 0 1.5-1.5 1.5 1.5 0 0 0-1.5-1.5m0 1a0.5 0.5 0 0 1 0.5 0.5 0.5 0.5 0 0 1-0.5 0.5 0.5 0.5 0 0 1-0.5-0.5 0.5 0.5 0 0 1 0.5-0.5" style="fill:#3d8b58"/>
 </g>
</svg>

<svg xmlns="http://www.w3.org/2000/svg" viewBox="0 0 48 48">
 <defs>
  <linearGradient id="linearGradient3764" x1="1" x2="47" gradientUnits="userSpaceOnUse" gradientTransform="matrix(0,-1,1,0,-1.5e-6,47.999998)">
   <stop style="stop-color:#9c7a40;stop-opacity:1"/>
   <stop offset="1" style="stop-color:#ab8746;stop-opacity:1"/>
  </linearGradient>
 </defs>
 <g>
  <path d="m 36.31 5 c 5.859 4.062 9.688 10.831 9.688 18.5 c 0 12.426 -10.07 22.5 -22.5 22.5 c -7.669 0 -14.438 -3.828 -18.5 -9.688 c 1.037 1.822 2.306 3.499 3.781 4.969 c 4.085 3.712 9.514 5.969 15.469 5.969 c 12.703 0 23 -10.298 23 -23 c 0 -5.954 -2.256 -11.384 -5.969 -15.469 c -1.469 -1.475 -3.147 -2.744 -4.969 -3.781 z m 4.969 3.781 c 3.854 4.113 6.219 9.637 6.219 15.719 c 0 12.703 -10.297 23 -23 23 c -6.081 0 -11.606 -2.364 -15.719 -6.219 c 4.16 4.144 9.883 6.719 16.219 6.719 c 12.703 0 23 -10.298 23 -23 c 0 -6.335 -2.575 -12.06 -6.719 -16.219 z" style="opacity:0.05"/>
  <path d="m 41.28 8.781 c 3.712 4.085 5.969 9.514 5.969 15.469 c 0 12.703 -10.297 23 -23 23 c -5.954 0 -11.384 -2.256 -15.469 -5.969 c 4.113 3.854 9.637 6.219 15.719 6.219 c 12.703 0 23 -10.298 23 -23 c 0 -6.081 -2.364 -11.606 -6.219 -15.719 z" style="opacity:0.1"/>
  <path d="m 31.25 2.375 c 8.615 3.154 14.75 11.417 14.75 21.13 c 0 12.426 -10.07 22.5 -22.5 22.5 c -9.708 0 -17.971 -6.135 -21.12 -14.75 a 23 23 0 0 0 44.875 -7 a 23 23 0 0 0 -16 -21.875 z" style="opacity:0.2"/>
 </g>
 <g>
  <path d="m 24 1 c 12.703 0 23 10.297 23 23 c 0 12.703 -10.297 23 -23 23 -12.703 0 -23 -10.297 -23 -23 0 -12.703 10.297 -23 23 -23 z" style="fill:url(#linearGradient3764);fill-opacity:1"/>
 </g>
 <g>
  <path d="m 40.03 7.531 c 3.712 4.084 5.969 9.514 5.969 15.469 0 12.703 -10.297 23 -23 23 c -5.954 0 -11.384 -2.256 -15.469 -5.969 4.178 4.291 10.01 6.969 16.469 6.969 c 12.703 0 23 -10.298 23 -23 0 -6.462 -2.677 -12.291 -6.969 -16.469 z" style="opacity:0.1"/>
 </g>
 <g style="fill:#000;fill-opacity:0.102">
  <rect width="13" height="20" x="11" y="15" rx="2"/>
  <rect rx="2" y="15" x="26" height="20" width="13"/>
 </g>
 <g>
  <rect rx="2" y="14" x="10" height="20" width="13" style="fill:#f4eee4;fill-opacity:1"/>
  <rect width="13" height="20" x="25" y="14" rx="2" style="fill:#f4eee4;fill-opacity:1"/>
  <g>
   <path d="M 28.5 16 A 2.5 2.5 0 0 0 26 18.5 2.5 2.5 0 0 0 28.5 21 2.5 2.5 0 0 0 31 18.5 2.5 2.5 0 0 0 28.5 16 m 0 1 A 1.5 1.5 0 0 1 30 18.5 1.5 1.5 0 0 1 28.5 20 1.5 1.5 0 0 1 27 18.5 1.5 1.5 0 0 1 28.5 17" style="fill:#3d8b58;fill-opacity:1"/>
   <circle cx="28.5" cy="18.5" r="0.5" style="fill:#3d8b58;fill-opacity:1"/>
  </g>
  <path d="M 34.5 16 A 2.5 2.5 0 0 0 32 18.5 2.5 2.5 0 0 0 34.5 21 2.5 2.5 0 0 0 37 18.5 2.5 2.5 0 0 0 34.5 16 m 0 1 A 1.5 1.5 0 0 1 36 18.5 1.5 1.5 0 0 1 34.5 20 1.5 1.5 0 0 1 33 18.5 1.5 1.5 0 0 1 34.5 17" style="fill:#606060;fill-opacity:1"/>
  <circle cx="34.5" cy="18.5" r="0.5" style="fill:#606060;fill-opacity:1"/>
  <path d="M 28.5 27 A 2.5 2.5 0 0 0 26 29.5 2.5 2.5 0 0 0 28.5 32 2.5 2.5 0 0 0 31 29.5 2.5 2.5 0 0 0 28.5 27 m 0 1 A 1.5 1.5 0 0 1 30 29.5 1.5 1.5 0 0 1 28.5 31 1.5 1.5 0 0 1 27 29.5 1.5 1.5 0 0 1 28.5 28" style="fill:#606060;fill-opacity:1"/>
  <circle cx="28.5" cy="29.5" r="0.5" style="fill:#606060;fill-opacity:1"/>
  <g>
   <path d="M 34.5 27 A 2.5 2.5 0 0 0 32 29.5 2.5 2.5 0 0 0 34.5 32 2.5 2.5 0 0 0 37 29.5 2.5 2.5 0 0 0 34.5 27 m 0 1 A 1.5 1.5 0 0 1 36 29.5 1.5 1.5 0 0 1 34.5 31 1.5 1.5 0 0 1 33 29.5 1.5 1.5 0 0 1 34.5 28" style="fill:#3d8b58;fill-opacity:1"/>
   <circle cx="34.5" cy="29.5" r="0.5" style="fill:#3d8b58;fill-opacity:1"/>
  </g>
  <g>
   <path d="M 16.5 16 A 3.5 3.5 0 0 0 13 19.5 3.5 3.5 0 0 0 16.5 23 3.5 3.5 0 0 0 20 19.5 3.5 3.5 0 0 0 16.5 16 m 0 1 A 2.5 2.5 0 0 1 19 19.5 2.5 2.5 0 0 1 16.5 22 2.5 2.5 0 0 1 14 19.5 2.5 2.5 0 0 1 16.5 17" style="fill:#606060;fill-opacity:1"/>
   <path d="M 16.5 18 A 1.5 1.5 0 0 0 15 19.5 1.5 1.5 0 0 0 16.5 21 1.5 1.5 0 0 0 18 19.5 1.5 1.5 0 0 0 16.5 18 m 0 1 A 0.5 0.5 0 0 1 17 19.5 0.5 0.5 0 0 1 16.5 20 0.5 0.5 0 0 1 16 19.5 0.5 0.5 0 0 1 16.5 19" style="fill:#606060;fill-opacity:1"/>
  </g>
  <g transform="translate(0,9)">
   <path d="M 16.5 16 A 3.5 3.5 0 0 0 13 19.5 3.5 3.5 0 0 0 16.5 23 3.5 3.5 0 0 0 20 19.5 3.5 3.5 0 0 0 16.5 16 m 0 1 A 2.5 2.5 0 0 1 19 19.5 2.5 2.5 0 0 1 16.5 22 2.5 2.5 0 0 1 14 19.5 2.5 2.5 0 0 1 16.5 17" style="fill:#3d8b58;fill-opacity:1"/>
   <path d="M 16.5 18 A 1.5 1.5 0 0 0 15 19.5 1.5 1.5 0 0 0 16.5 21 1.5 1.5 0 0 0 18 19.5 1.5 1.5 0 0 0 16.5 18 m 0 1 A 0.5 0.5 0 0 1 17 19.5 0.5 0.5 0 0 1 16.5 20 0.5 0.5 0 0 1 16 19.5 0.5 0.5 0 0 1 16.5 19" style="fill:#3d8b58;fill-opacity:1"/>
  </g>
 </g>
</svg>
